X: 1
T: On What Has Now Been Sown
C: Words: John Newton, 1779.  Music: 'Darwall`s 148th' John Darwall, 1770. 
C: Setting: "Common Service Book" (ULCA), 1917.
C: copyright: public domain.  This score is a part of the Open Hymnal Project, 2013 Revision.
S: Music source: 'Common Service Book with Hymnal', ULCA 1918 Hymn 68.
S: Lyrics from Evangelical Lutheran Hymn-Book, 1931 Hymn 11.
M: 4/4 % time signature
L: 1/4 % default length
%%staves (S1V1 S1V2) | (S2V1 S2V2) 
V: S1V1 clef=treble 
%%MIDI beat 127 125 110 1
V: S1V2 
%%MIDI beat 127 125 110 1
V: S2V1 clef=bass 
%%MIDI beat 127 125 110 1
V: S2V2 
%%MIDI beat 127 125 110 1
K: D % key signature
%
%%MIDI program 1 0 % Piano 1
%%MIDI program 2 0 % Piano 1
%%MIDI program 3 0 % Piano 1
%%MIDI program 4 0 % Piano 1
%
% 1
[V: S1V1] [Q:1/4=140] D | F D A F | d3 c | B A G F | E3 E | F
w: 1.~On what has now been sown Thy bless- ing, Lord, be- stow; The pow'r 
w: 2.~To Thee our wants are known, From Thee are all our pow'rs; Ac- cept 
w: 3.~Oh, grant that each of us Now met be- fore Thee here May meet 
[V: S1V2] A, | D D E F | F3 F | G D C D | C3 C | D
[V: S2V1] F, | A, F, A, A, | D3 D | D A, A, A, | A,3 A, | A,
[V: S2V2] D, | D, D, C, D, | B,3 A, | G, F, E, D, | A,,3 A,, | D,
% 6
[V: S1V1] D B A | ^G E e d | c2 B2 | A3 A | B2 c2 | d3
w: is Thine a- lone To make it spring and grow. Do Thou in grace 
w: what is Thine own And par- don what is ours. Our prais- es, Lord, 
w: to- ge- ther thus When Thou and Thine ap- pear And fol- low Thee 
[V: S1V2] D F E | E E E F | E3 D | C3 D | D2 G2 | F3
[V: S2V1] F, D C | B, ^G, A, A, | A,2 ^G,2 | A,3 F, | G,2 G,2 | A,3
[V: S2V2] D, B,, C,/D,/ | E, D, C, D, | E,2 E,2 | A,,3 D, | G,2 E,2 | D,3
% 11
[V: S1V1] D | E F G !sintro!A | B c d e |  d2 c2 | d3 !eintro!|]
w: the har- vest raise, And Thou a- lone shalt have the praise. 
w: and prayers re- ceive And to Thy Word a bless- ing give. 
w: to Heav'n, our home. E'en so, A- men, Lord Je- sus, come! 
[V: S1V2] D | C D D D | D G F E | F2 G2 | F3 |]
[V: S2V1] A, | G, A, G, F, | G, G, A, B, | A,2 A,2 | A,3 |]
[V: S2V2] F, | E, D, B,, D, | G, E, F, G, | A,2 A,,2 | D,3 |]
